X:101
T:La Marcho de la Reino du Felibrige 1927
O:France
A:Provence
C:J. Ginas
R:Marche
S:Carnet du tambourinaire Ginas (1924)
Z:Transcrit et/ou corrig par Michel BELLON - 2005-03-02
Z:Pour toute observation mailto:galouvielle@free.fr
M:6/8
L:1/8
K:Bb
V:Galoubet
BF dB | ff/f/ f2 | dB dB | cc/c/ c2 | dG ec | gg/g/ g2 | fe c^c | dd/d/ d2 | BF dB | ff/f/ f2 | ed ce |
gg/g/ g2 | cd ec | ff/f/ f2 | Fe dc | B2B2 :: c4 | A2 F2 | d4 | B4 | FGAB | c2e2 | d4 | B4 | e4 | G2B2 | d4 | c4 |
defg | A2c2 | B4- | B2z2 | f4 | d2B2 | G3B/d/ | g4 | fecA | G2A2 | G4 | F4 | f4 | d2B | g4- | g2 bg | f3d | e3c | B2B>B | B2z2!fine! |]
[K:F] c4 | f>e d>c | d4 | c4 | F2G>A | B>A B>c | d>c d>_e | c4 | e>d c>B | A>G A>c | f4 | A2 e>d | c2 F>B | A2G2 | F4 :|!D.C.!
%%footer $D   Galouvielle-MBe 2008 \nMarche (France)
